src/pos-icons/bookmark-multiple-outline.svg

<svg height="24" viewBox="0 0 24 24" width="24" xmlns="http://www.w3.org/2000/svg"><path d="m9 1h10a2 2 0 0 1 2 2v16l-2-.87v-15.13h-12a2 2 0 0 1 2-2m6 19v-13h-10v13l5-2.18zm0-15c1.11 0 2 .9 2 2v16l-7-3-7 3v-16a2 2 0 0 1 2-2z"/></svg>

<?xml version="1.0" encoding="UTF-8"?><!DOCTYPE svg PUBLIC "-//W3C//DTD SVG 1.1//EN" "http://www.w3.org/Graphics/SVG/1.1/DTD/svg11.dtd"><svg xmlns="http://www.w3.org/2000/svg" xmlns:xlink="http://www.w3.org/1999/xlink" version="1.1" id="mdi-bookmark-multiple-outline" width="24" height="24" viewBox="0 0 24 24"><path d="M9,1H19A2,2 0 0,1 21,3V19L19,18.13V3H7A2,2 0 0,1 9,1M15,20V7H5V20L10,17.82L15,20M15,5C16.11,5 17,5.9 17,7V23L10,20L3,23V7A2,2 0 0,1 5,5H15Z" /></svg>
